flaticon/household/window.svg

<svg xmlns="http://www.w3.org/2000/svg" width="32" height="32" viewBox="0 0 24 24">
    <path d="M 23.601562 0.199219 L 0.398438 0.199219 C 0.179688 0.199219 0 0.378906 0 0.601562 C 0 0.820312 0.179688 1 0.398438 1 L 0.398438 23.800781 L 4.800781 23.800781 L 4.800781 17.800781 L 19.199219 17.800781 L 19.199219 23.800781 L 23.601562 23.800781 L 23.601562 1 C 23.820312 1 24 0.820312 24 0.601562 C 24 0.378906 23.820312 0.199219 23.601562 0.199219 Z M 19.199219 1 L 19.199219 1.800781 L 4.800781 1.800781 L 4.800781 1 Z M 19.199219 15.800781 L 4.800781 15.800781 L 4.800781 15 L 19.199219 15 Z M 12.398438 14.199219 L 11.601562 14.199219 L 11.601562 2.601562 L 12.398438 2.601562 Z M 10.800781 14.199219 L 4.800781 14.199219 L 4.800781 2.601562 L 10.800781 2.601562 Z M 13.199219 14.199219 L 13.199219 2.601562 L 19.199219 2.601562 L 19.199219 14.199219 Z M 2.398438 23 L 1.199219 23 L 1.199219 1 L 2.398438 1 Z M 4 23 L 3.199219 23 L 3.199219 1 L 4 1 Z M 4.800781 17 L 4.800781 16.601562 L 19.199219 16.601562 L 19.199219 17 Z M 20.800781 23 L 20 23 L 20 1 L 20.800781 1 Z M 22.800781 23 L 21.601562 23 L 21.601562 1 L 22.800781 1 Z M 22.800781 23"/>
    <path d="M6 5.398438C6.101562 5.398438 6.203125 5.359375 6.28125 5.28125L7.882812 3.683594C8.039062 3.527344 8.039062 3.273438 7.882812 3.117188 7.726562 2.960938 7.472656 2.960938 7.316406 3.117188L5.71875 4.71875C5.5625 4.875 5.5625 5.125 5.71875 5.28125 5.796875 5.359375 5.898438 5.398438 6 5.398438zM6 7.398438C6.101562 7.398438 6.203125 7.359375 6.28125 7.28125L7.082031 6.484375C7.238281 6.328125 7.238281 6.074219 7.082031 5.917969 6.925781 5.761719 6.671875 5.761719 6.515625 5.917969L5.71875 6.71875C5.5625 6.875 5.5625 7.125 5.71875 7.28125 5.796875 7.359375 5.898438 7.398438 6 7.398438zM7.882812 5.683594C7.957031 5.609375 8 5.503906 8 5.398438 8 5.296875 7.957031 5.191406 7.882812 5.117188 7.734375 4.96875 7.464844 4.96875 7.316406 5.117188 7.242188 5.191406 7.199219 5.292969 7.199219 5.398438 7.199219 5.503906 7.242188 5.609375 7.316406 5.683594 7.390625 5.757812 7.496094 5.800781 7.601562 5.800781 7.703125 5.800781 7.808594 5.757812 7.882812 5.683594zM8.117188 4.882812C8.195312 4.960938 8.296875 5 8.398438 5 8.503906 5 8.605469 4.960938 8.683594 4.882812L9.882812 3.683594C10.039062 3.527344 10.039062 3.273438 9.882812 3.117188 9.726562 2.960938 9.472656 2.960938 9.316406 3.117188L8.117188 4.316406C7.960938 4.472656 7.960938 4.726562 8.117188 4.882812zM9.316406 5.117188L5.71875 8.71875C5.5625 8.875 5.5625 9.125 5.71875 9.28125 5.796875 9.359375 5.898438 9.398438 6 9.398438 6.101562 9.398438 6.203125 9.359375 6.28125 9.28125L9.882812 5.683594C10.039062 5.527344 10.039062 5.273438 9.882812 5.117188 9.726562 4.960938 9.472656 4.960938 9.316406 5.117188zM18.117188 11.515625L16.515625 13.117188C16.359375 13.273438 16.359375 13.527344 16.515625 13.683594 16.59375 13.761719 16.699219 13.800781 16.800781 13.800781 16.902344 13.800781 17.003906 13.761719 17.082031 13.683594L18.683594 12.082031C18.839844 11.925781 18.839844 11.671875 18.683594 11.515625 18.527344 11.359375 18.273438 11.359375 18.117188 11.515625zM18.117188 9.515625L17.316406 10.316406C17.160156 10.472656 17.160156 10.726562 17.316406 10.882812 17.394531 10.960938 17.496094 11 17.601562 11 17.703125 11 17.804688 10.960938 17.882812 10.882812L18.683594 10.082031C18.839844 9.925781 18.839844 9.671875 18.683594 9.515625 18.527344 9.359375 18.273438 9.359375 18.117188 9.515625zM16.515625 11.117188C16.445312 11.191406 16.398438 11.296875 16.398438 11.398438 16.398438 11.503906 16.445312 11.609375 16.515625 11.683594 16.59375 11.757812 16.695312 11.800781 16.800781 11.800781 16.90625 11.800781 17.007812 11.757812 17.085938 11.683594 17.15625 11.609375 17.199219 11.503906 17.199219 11.398438 17.199219 11.296875 17.15625 11.191406 17.085938 11.117188 16.9375 10.96875 16.667969 10.96875 16.515625 11.117188zM16.28125 11.917969C16.125 11.761719 15.875 11.761719 15.71875 11.917969L14.515625 13.117188C14.359375 13.273438 14.359375 13.527344 14.515625 13.683594 14.59375 13.761719 14.699219 13.800781 14.800781 13.800781 14.902344 13.800781 15.003906 13.761719 15.082031 13.683594L16.28125 12.484375C16.4375 12.328125 16.4375 12.074219 16.28125 11.917969zM14.800781 11.800781C14.902344 11.800781 15.003906 11.761719 15.082031 11.683594L18.683594 8.082031C18.839844 7.925781 18.839844 7.671875 18.683594 7.515625 18.527344 7.359375 18.273438 7.359375 18.117188 7.515625L14.515625 11.117188C14.359375 11.273438 14.359375 11.527344 14.515625 11.683594 14.59375 11.761719 14.699219 11.800781 14.800781 11.800781zM14.800781 11.800781"/>
</svg>

<svg xmlns="http://www.w3.org/2000/svg" width="32" height="32" viewBox="0 0 24 24">
    <path d="M23.602.2H.398a.401.401 0 0 0 0 .8v22.8h4.403v-6h14.398v6h4.403V1a.4.4 0 0 0 0-.8zm-4.403.8v.8H4.801V1zm0 14.8H4.801V15h14.398zm-6.8-1.6h-.797V2.601h.796zm-1.598 0h-6V2.601h6zm2.398 0V2.601h6v11.597zM2.4 23h-1.2V1h1.2zM4 23h-.8V1H4zm.8-6v-.398h14.4V17zm16 6H20V1h.8zm2 0h-1.198V1H22.8zm0 0"/>
    <path d="M6 5.398c.102 0 .203-.039.281-.117l1.602-1.597a.4.4 0 0 0-.567-.567L5.72 4.72a.396.396 0 0 0 0 .562c.078.078.18.117.281.117zm0 0M6 7.398c.102 0 .203-.039.281-.117l.801-.797a.4.4 0 0 0-.566-.566l-.797.8a.396.396 0 0 0 0 .563c.078.078.18.117.281.117zm0 0M7.883 5.684A.409.409 0 0 0 8 5.398a.406.406 0 0 0-.117-.28.416.416 0 0 0-.567 0 .4.4 0 0 0 .286.683.406.406 0 0 0 .28-.117zm0 0M8.117 4.883a.399.399 0 0 0 .566 0l1.2-1.2a.4.4 0 0 0-.567-.566l-1.199 1.2a.4.4 0 0 0 0 .566zm0 0M9.316 5.117L5.72 8.72a.396.396 0 0 0 0 .562.396.396 0 0 0 .562 0l3.602-3.597a.4.4 0 0 0-.567-.567zm0 0M18.117 11.516l-1.601 1.601a.4.4 0 0 0 .566.567l1.602-1.602a.4.4 0 0 0-.567-.566zm0 0M18.117 9.516l-.8.8a.4.4 0 0 0 .566.567l.8-.801a.4.4 0 0 0-.566-.566zm0 0M16.516 11.117a.424.424 0 0 0-.118.281c0 .106.047.211.118.286.078.074.18.117.285.117a.416.416 0 0 0 .285-.117.423.423 0 0 0 .113-.286.42.42 0 0 0-.113-.28.42.42 0 0 0-.57 0zm0 0M16.281 11.918a.396.396 0 0 0-.562 0l-1.203 1.2a.4.4 0 0 0 .566.566l1.2-1.2a.4.4 0 0 0 0-.566zm0 0M14.8 11.8c.102 0 .204-.038.282-.116l3.602-3.602a.4.4 0 0 0-.567-.566l-3.601 3.601a.4.4 0 0 0 .285.684zm0 0"/>
</svg>
